assets/icons/qvision/money_off.svg

<svg width="24" height="24" viewBox="0 0 24 24" fill="none" xmlns="http://www.w3.org/2000/svg">
<g clip-path="url(#clip0_147_2711)">
<path d="M12.5001 6.9C14.2801 6.9 14.9401 7.75 15.0001 9H17.2101C17.1401 7.28 16.0901 5.7 14.0001 5.19V3H11.0001V5.16C10.4701 5.28 9.97006 5.46 9.52006 5.7L10.9901 7.17C11.4001 7 11.9001 6.9 12.5001 6.9ZM5.33006 4.06L4.06006 5.33L7.50006 8.77C7.50006 10.85 9.06006 11.98 11.4101 12.68L14.9201 16.19C14.5801 16.67 13.8701 17.1 12.5001 17.1C10.4401 17.1 9.63006 16.18 9.52006 15H7.32006C7.44006 17.19 9.08006 18.42 11.0001 18.83V21H14.0001V18.85C14.9601 18.67 15.8201 18.3 16.4501 17.73L18.6701 19.95L19.9401 18.68L5.33006 4.06Z" fill="#323232"/>
</g>
<defs>
<clipPath id="clip0_147_2711">
<rect width="24" height="24" fill="white"/>
</clipPath>
</defs>
</svg>

<svg xmlns="http://www.w3.org/2000/svg" height="24" viewBox="0 0 24 24" width="24"><path d="M0 0h24v24H0z" fill="none"/><path d="M12.5 6.9c1.78 0 2.44.85 2.5 2.1h2.21c-.07-1.72-1.12-3.3-3.21-3.81V3h-3v2.16c-.53.12-1.03.3-1.48.54l1.47 1.47c.41-.17.91-.27 1.51-.27zM5.33 4.06L4.06 5.33 7.5 8.77c0 2.08 1.56 3.21 3.91 3.91l3.51 3.51c-.34.48-1.05.91-2.42.91-2.06 0-2.87-.92-2.98-2.1h-2.2c.12 2.19 1.76 3.42 3.68 3.83V21h3v-2.15c.96-.18 1.82-.55 2.45-1.12l2.22 2.22 1.27-1.27L5.33 4.06z"/></svg>
